X: 157
T: REEL: Torn Jacket
C: C: Connie O'Connell; S: Tommy Guihen; Connie O'Connell
C: Set Leaders: Mars, Anton
Z: Mars Agliullin ed., Anton Zille ed.; Mars at The Session
N: https://thesession.org/members/26966/sets/94278
R: Reel
M: 4/4
L: 1/8
Q: 1/2=100
K: Dmaj
|:~F3A dfed|cAAB cdeA|~F3A dfed|cAGE EDDE|
~F3A dfed|cAAB cdec|d2de fded|cAGE EDD2:||
|:FAdf ~a3f|~g3g gfed|cA~A2 (3Bcd ef|gfed cAGE|
FAdf ~a3f|~g3g gfef|~g2ba gfed|cAGE EDD2:||

